!!!OTL: Largum vesper
**kern
*staff1
=1-
*clefC4
*k[b-]
2G/
2A\
1B-
=2
2.A\
4G/
1F
=3
2G/
2A\
1B-
=4
0A
=5
0F
=6
2.B-\
4F/
2G/
2d\
=7
0G;
=8
!!linebreak:original
1F
2F/
2F/
=9
2G/
2G/
2D/
1d
2c\
1d
=10
0G
==
*-
!!title: @{OTL}, @{GTL}, ed. @{ENC}
!!!pag:
!!!GTL: Hymnbook D
!!!EFL: 
!!!YEM: Creative Commons CC/BY/NC/SA 4.0
!!!ENC: Marcin Konik
!!!END: 2015-0m-dd
!!!EED: Marcin Konik
!!!EEV: 
!!!ONB: Encoded in vim by Marcin Konik
!!!CharacterEncoding: utf-8
!!!RDF**kern: l=long note in original notation
!!!RDF**kern: i=editorial accidental
!!muse2ps: z14jc180F
!!!COM: Anonim
!!!CDT: [?]
!!!TXO: Polish
!!!ODT: 
!!!GTL: Hymnbook D
!!!ARL: Opactwo św. Wojciecha, Staniątki 
!!!voices:	1
